!!!COM:	Ockeghem, Johannes
!!!CDT:	~1425-1497/02/06
!!!OPR:	Missa De plus en plus
!!!ONM:	5
!!!OTL:	Agnus Dei
!!!AGN:	Mass; Agnus Dei
!!!SCT:	Ock1005e
!!!voices:	4
!!!voices-OPR:	4
**kern	**kern	**kern	**kern
*staff4	*staff3	*staff2	*staff1
*Ivox	*Ivox	*Ivox	*Ivox
*I"Bassus	*I"Tenor	*I"Altus	*I"Superius
*I'B	*I'T	*I'A	*I'S
*>[A,B,C]	*>[A,B,C]	*>[A,B,C]	*>[A,B,C]
*>A	*>A	*>A	*>A
*clefF4	*clefGv2	*clefGv2	*clefG2
*k[]	*k[]	*k[]	*k[]
*M3/1	*M3/1	*M3/1	*M3/1
*met(O)	*met(O)	*met(O)	*met(O)
=1-	=1-	=1-	=1-
!!section: Agnus Dei I
!!!OMD: Agnus Dei I
0G	0.G	0d	1.g
.	.	.	2f/
1B	.	1g	2.e/
.	.	.	4d/
=2	=2	=2	=2
2B\	0.B	1.g	1d
1d	.	.	.
.	.	.	0g
2c\	.	2f\	.
1B	.	1d	.
=3	=3	=3	=3
1.A	0.c	0e	1a
.	.	.	1.cc
2G\	.	.	.
1F	.	1f	.
.	.	.	4b\
.	.	.	4a/
=4	=4	=4	=4
1E	0.e	2r	1g
.	.	2g\	.
0C	.	2e\	2r
.	.	1.c	2a/
.	.	.	2g/
.	.	.	2e/
=5	=5	=5	=5
0.D	1d	2B\	2f/
.	.	2A/	2a/
.	2B\	2.d\	2b\
.	1A	.	2.dd\
.	.	4c\	.
.	.	1A	.
.	.	.	4cc\
.	[2d\	.	2a/
=6	=6	=6	=6
1r	4d\]	2A/	2cc\
.	4c\	.	.
.	2d\	1G	2.b\
2r	1G	.	.
.	.	.	4g/
1d	.	2B\	2.g/
.	1A	2A/	.
.	.	.	4e/
2c\	.	2c\	2f#i/
=7	=7	=7	=7
!!linebreak:original
2e\	0G	2B\	1g
2d\	.	2G/	.
1G	.	2r	1b
.	.	1g	.
1A	1r	.	1cc
.	.	2f\	.
=8	=8	=8	=8
2F\	0.r	2a\	2dd\
1c	.	2g\	1ee
.	.	1c	.
2A\	.	.	1cc
1G	.	1d	.
.	.	.	2b\
=9	=9	=9	=9
[0.C	[0.c	2g\	1cc
.	.	2a\	.
.	.	2g\	2g/
.	.	1.e	2.a/
.	.	.	4g/
.	.	.	2e/
=10	=10	=10	=10
0.C_	0.c_	2c\	2f/
.	.	2.e\	2g/
.	.	.	1c
.	.	4f\	.
.	.	1g	.
.	.	.	1e
.	.	[2e\	.
=11	=11	=11	=11
0.C]	0.c]	1.e]	1.g
.	.	2c\	2.a/
.	.	2A/	.
.	.	.	4g/
.	.	2c\	2e/
=12	=12	=12	=12
2r	[0.B	0G	0d
1GG	.	.	.
1G	.	.	.
.	.	1r	1g
2E\	.	.	.
=13	=13	=13	=13
1D	1B]	1d	1f
1C	1c	1e	2e/
.	.	.	1c
1F	1A	2.c\	.
.	.	.	2cc\
.	.	4d\	.
=14	=14	=14	=14
!!linebreak:original
2G\	2r	2e\	2b\
2D\	2d\	1f	1a
2F\	2c\	.	.
2G\	2B\	1d	1g
2A\	1A	.	.
2c\	.	2c\	2f#i/
=15	=15	=15	=15
2B\	1G	1d	0g
4c\	.	.	.
4d\	.	.	.
2.e\	2r	1r	.
.	[1.G	.	.
4d\	.	.	.
2c\	.	1r	1r
2B\	.	.	.
=16	=16	=16	=16
1A	2G/]	0.r	0.r
.	2F/	.	.
1G	2G/	.	.
.	1A	.	.
2F\	.	.	.
4G\	[2G/	.	.
[4E\	.	.	.
=17	=17	=17	=17
4E\]	4G/]	0.r	0.r
8D/L	4E/	.	.
8C/J	.	.	.
2BB/	2D/	.	.
4C/	2.G/	.	.
2GG/	.	.	.
4AA/	8F/L	.	.
.	8E/J	.	.
4BB/	1D	.	.
4C/	.	.	.
4D\	.	.	.
4BB/	.	.	.
=18	=18	=18	=18
0C	0C	1r	1r
.	.	2.G/	1r
.	.	4A/	.
1r	1r	2B\	2.g/
.	.	[2c\	.
.	.	.	4a/
=19	=19	=19	=19
0.r	0.r	4c\]	2b\
.	.	4B\	.
.	.	4A/	2.cc\
.	.	4G/	.
.	.	2c\	.
.	.	.	4b\
.	.	2d\	4a/
.	.	.	4g/
.	.	2e\	2cc\
.	.	2f\	2a/
=20	=20	=20	=20
0.r	0.r	2d\	1.dd
.	.	1.g	.
.	.	.	2b\
.	.	2e\	2g/
.	.	2c\	[2cc\
=21	=21	=21	=21
!!pagebreak:original
0.r	0.r	1.d	4cc\]
.	.	.	8b/L
.	.	.	8a/J
.	.	.	2.b\
.	.	.	4a/
.	.	2c\	1a
.	.	1B	.
.	.	.	2g#i/
=22	=22	=22	=22
0.r	1r	2.A/	1a
.	.	4B\	.
.	1r	2c\	2g/
.	.	2d\	2f/
.	1c	2e\	1e
.	.	2c\	.
=23	=23	=23	=23
2r	1.B	2.d\	1d
1G	.	.	.
.	.	4c\	.
.	.	4B\	1r
.	.	4A/	.
2F\	1.c	1A	.
1E	.	.	1e
.	.	2G/	.
=24	=24	=24	=24
1D	1.d	2.A/	2.f/
.	.	4D/	4g/
2r	.	2F/	2a/
1C	1.G	1E	2.cc\
.	.	.	4b\
2BB/	.	2D/	2g/
=25	=25	=25	=25
1AA	1F	2C/	1a
.	.	1.D	.
1GG	2r	.	1b
.	1G	.	.
1r	.	2.G/	1r
.	2F/	.	.
.	.	4A/	.
=26	=26	=26	=26
1r	1E	2B\	1g
.	.	2c\	.
2.D\	1D	2.d\	2.a/
4E\	.	4c\	2f/
2.F\	2.D/	1A	.
.	.	.	4e/
.	.	.	2d/
4G\	4E/	.	.
=27	=27	=27	=27
1A	2.F/	1r	1c
.	4G/	.	.
1r	2.A/	2.c\	2.f/
.	4B\	4d\	4g/
1r	2c\	2e\	2a/
.	[2d\	[2f\	[2b-i\
=28	=28	=28	=28
!!linebreak:original
1D	1d]	1f]	4b-\]
.	.	.	4a/
.	.	.	1dd
2G\	2B\	2g\	.
2A\	2c\	2f\	1cc
1G	1d	1g	.
.	.	.	2b\
=29	=29	=29	=29
2r	[0.cl	1e	1.cc
1A	.	.	.
.	.	2.c\	.
1F	.	.	1a
.	.	4B\	.
.	.	1A	.
2E\	.	.	4g/
.	.	.	4f/
=30	=30	=30	=30
0.Cl	0.c]	0.Gl	0.el
!!LO:LB:i:g=z
=31||	=31||	=31||	=31||
*>B	*>B	*>B	*>B
!!section: Agnus Dei II
!!!OMD: Agnus Dei II
*M2/1	*M2/1	*M2/1	*M2/1
*met(C|)	*met(C|)	*met(C|)	*met(C|)
0r	0r	[0c	0cc
=32	=32	=32	=32
0r	0r	0c]	1a
.	.	.	1g
=33	=33	=33	=33
0r	0r	0A	1.cc
.	.	.	2dd\
=34	=34	=34	=34
0r	0r	0G	0b
=35	=35	=35	=35
!!linebreak:original
0r	0r	0c	1a
.	.	.	[1g
=36	=36	=36	=36
0r	0r	0e	1g]
.	.	.	1cc
=37	=37	=37	=37
0r	0r	1.d	1b
.	.	.	[1a
.	.	2c\	.
=38	=38	=38	=38
0r	0r	1B	2a/]
.	.	.	2g/
.	.	1c	1g
=39	=39	=39	=39
0r	0r	0d	1f
.	.	.	[1d
=40	=40	=40	=40
0r	0r	1B	1d]
.	.	1c	1e
=41	=41	=41	=41
0r	0r	1.d	1f
.	.	.	[1d
.	.	4c\	.
.	.	4d\	.
=42	=42	=42	=42
!!linebreak:original
0r	0r	1.B	1d]
.	.	.	[1g
.	.	4c\	.
.	.	4d\	.
=43	=43	=43	=43
0r	0r	1.e	1g]
.	.	.	1c
.	.	2d\	.
=44	=44	=44	=44
0r	0r	1B	[0g
.	.	1c	.
=45	=45	=45	=45
0r	0r	1e	1g]
.	.	1d	1a
=46	=46	=46	=46
0r	0r	1B	1b
.	.	1c	[1g
=47	=47	=47	=47
0r	0r	0A	2g/]
.	.	.	2e/
.	.	.	1f#i
=48	=48	=48	=48
0r	[0G	0G	1.g
.	.	.	2f/
=49	=49	=49	=49
!!pagebreak:original
0r	0G]	0B	[0d
=50	=50	=50	=50
0r	[0D	1r	1d]
.	.	[1A	[1f
=51	=51	=51	=51
0r	1D]	0A_	1f]
.	1C	.	1e
=52	=52	=52	=52
0r	1.F	1A]	1c
.	.	1B	[1d
.	2G/	.	.
=53	=53	=53	=53
0r	1B-	1G	1d]
.	1A	[1c	1e
=54	=54	=54	=54
0r	1F	1c]	1f
.	1G	1B	[1d
=55	=55	=55	=55
0r	0E	0G	1d]
.	.	.	1c#i
=56	=56	=56	=56
!!linebreak:original
0r	[0D	0A	0d
=57	=57	=57	=57
0r	1D]	0B	0r
.	[1G	.	.
=58	=58	=58	=58
0r	1G]	0A	[0d
.	1F#i	.	.
=59	=59	=59	=59
0r	0G	0d	1d]
.	.	.	[1g
=60	=60	=60	=60
0A	0r	0c	1g]
.	.	.	1f#i
=61	=61	=61	=61
1.G	[0d	1B	0g
.	.	1G	.
4F\	.	.	.
4E\	.	.	.
=62	=62	=62	=62
0D	0d]	1A	1r
.	.	1B	1f
=63	=63	=63	=63
!!linebreak:original
0C	[0e	[0c	1e
.	.	.	[1g
=64	=64	=64	=64
1.E	0e_	0c]	1g]
.	.	.	1a
2F\	.	.	.
=65	=65	=65	=65
0A	0e]	1r	0cc
.	.	1A	.
=66	=66	=66	=66
1r	[0d	0B	0dd
[1G	.	.	.
=67	=67	=67	=67
1G]	0d]	0G	1r
[1B-	.	.	[1g
=68	=68	=68	=68
1B-]	0r	1d	1g]
1A	.	1c	1f
=69	=69	=69	=69
0G	0B	0e	0g
=70	=70	=70	=70
!!linebreak:original
0F	[0c	0f	1a
.	.	.	[1cc
=71	=71	=71	=71
1A	0c]	[0e	2cc\]
.	.	.	2b\
[1c	.	.	[1a
=72	=72	=72	=72
1c]	0r	1e]	1a]
1B	.	1d	[1g
=73	=73	=73	=73
0A	1r	0c	2g/]
.	.	.	2e/
.	[1c	.	1f
=74	=74	=74	=74
0G	1c]	1r	0g
.	1B	1d	.
=75	=75	=75	=75
0F	0A	0D	0a
=76	=76	=76	=76
1r	[0G	0d	0b
1G	.	.	.
=77	=77	=77	=77
!!pagebreak:original
1E	0G]	0e	0g
1C	.	.	.
=78	=78	=78	=78
0D	1r	1.d	1f
.	1D	.	[1a
.	.	2c\	.
=79	=79	=79	=79
0r	0D	0A	1a]
.	.	.	1f
=80	=80	=80	=80
0r	0E	0G	1e
.	.	.	[1c
=81	=81	=81	=81
0r	[0A	1F	1c]
.	.	[1c	[1f
=82	=82	=82	=82
0r	1A]	1c]	1f]
.	[1G	[1B	[1e
=83	=83	=83	=83
1r	1G]	1B]	2e/]
.	.	.	2d/
[1D	1F	[1A	[1d
=84	=84	=84	=84
!!linebreak:original
1D]	0E	2A/]	1d]
.	.	2F/	.
1C	.	1G	1e
=85	=85	=85	=85
0BB-	0D	1.B-	1f
.	.	.	1g
.	.	4A/	.
.	.	4G/	.
=86	=86	=86	=86
0AA	0r	1F	0a
.	.	2E/	.
.	.	2F/	.
=87	=87	=87	=87
[0GG	[0G	1.G	[0b
.	.	2F/	.
=88	=88	=88	=88
0GG]	0G]	1E	1b]
.	.	1D	[1g
=89	=89	=89	=89
[0G	[0B	1r	1g]
.	.	1d	1d
=90	=90	=90	=90
0G]	0B]	1d	0g
.	.	1e	.
=91	=91	=91	=91
!!linebreak:original
[0F	[0c	[0f	0a
=92	=92	=92	=92
0F]	0c]	0f]	1r
.	.	.	1a
=93	=93	=93	=93
0E	[0e	0g	1g
.	.	.	[1cc
=94	=94	=94	=94
0A	0e]	0r	2cc\]
.	.	.	2b\
.	.	.	1cc
=95	=95	=95	=95
1B	0d	0g	1dd
[1G	.	.	[1b
=96	=96	=96	=96
1G]	1r	1e	1b]
1F	1d	1f	[1a
=97	=97	=97	=97
0G	1B	0d	2a/]
.	.	.	2g/
.	1G	.	[1g
=98	=98	=98	=98
!!linebreak:original
0D	0A	1r	1g]
.	.	1d	1f#i
=99	=99	=99	=99
[0GG	[0Gl	1.B	[0gl
.	.	2c\	.
=100	=100	=100	=100
0GG]	0G_	0e	0g_
=101	=101	=101	=101
0Gl	0G]	0dl	0g]
!!LO:LB:i:g=z
=102||	=102||	=102||	=102||
*>C	*>C	*>C	*>C
!!section: Agnus Dei III
!!!OMD: Agnus Dei III
*M3/1	*M3/1	*M3/1	*M3/1
*met(O)	*met(O)	*met(O)	*met(O)
0G	0.G	0d	1.g
.	.	.	2f/
1B	.	1g	2.e/
.	.	.	4d/
=103	=103	=103	=103
2B\	0.B	1.g	1d
1d	.	.	.
.	.	.	0g
2c\	.	2f\	.
1B	.	1d	.
=104	=104	=104	=104
1.A	0.c	0e	1a
.	.	.	1.cc
2G\	.	.	.
1F	.	1f	.
.	.	.	4b\
.	.	.	4a/
=105	=105	=105	=105
!!pagebreak:original
1E	0.e	2r	1g
.	.	2g\	.
0C	.	2e\	2r
.	.	1.c	2a/
.	.	.	2g/
.	.	.	2e/
=106	=106	=106	=106
0.D	1d	2B\	2f/
.	.	2A/	2a/
.	2B\	2.d\	2b\
.	1A	.	2.dd\
.	.	4c\	.
.	.	1A	.
.	.	.	4cc\
.	[2d\	.	2a/
=107	=107	=107	=107
1r	4d\]	2A/	2cc\
.	4c\	.	.
.	2d\	1G	2.b\
2r	1G	.	.
.	.	.	4g/
1d	.	2B\	2.g/
.	1A	2A/	.
.	.	.	4e/
2c\	.	2c\	2f#i/
=108	=108	=108	=108
2e\	0G	2B\	1g
2d\	.	2G/	.
1G	.	2r	1b
.	.	1g	.
1A	1r	.	1cc
.	.	2f\	.
=109	=109	=109	=109
2F\	0.r	2a\	2dd\
1c	.	2g\	1ee
.	.	1c	.
2A\	.	.	1cc
1G	.	1d	.
.	.	.	2b\
=110	=110	=110	=110
[0.C	[0.c	2g\	1cc
.	.	2a\	.
.	.	2g\	2g/
.	.	1.e	2.a/
.	.	.	4g/
.	.	.	[2e/
=111	=111	=111	=111
0.C_	0.c_	2c\	4e/]
.	.	.	4f/
.	.	2.e\	2g/
.	.	.	1c
.	.	4f\	.
.	.	1g	.
.	.	.	1e
.	.	[2e\	.
=112	=112	=112	=112
!!linebreak:original
0.C]	0.c]	1.e]	1.g
.	.	2c\	2.a/
.	.	2A/	.
.	.	.	4g/
.	.	2c\	2e/
=113	=113	=113	=113
2r	[0.B	0G	0d
1GG	.	.	.
1G	.	.	.
.	.	1r	1g
2E\	.	.	.
=114	=114	=114	=114
1D	1B]	1d	1f
1C	1c	1e	2e/
.	.	.	1c
1F	1A	2.c\	.
.	.	.	2cc\
.	.	4d\	.
=115	=115	=115	=115
2G\	2r	2e\	2b\
2D\	2d\	1f	1a
2F\	2c\	.	.
2G\	2B\	1d	1g
2A\	1A	.	.
2c\	.	2c\	2f#i/
=116	=116	=116	=116
2B\	1G	1d	0g
4c\	.	.	.
4d\	.	.	.
2.e\	2r	1r	.
.	[1.G	.	.
4d\	.	.	.
2c\	.	1r	1r
2B\	.	.	.
=117	=117	=117	=117
1A	2G/]	0.r	0.r
.	2F/	.	.
1G	2G/	.	.
.	1A	.	.
2F\	.	.	.
4G\	[2G/	.	.
[4E\	.	.	.
=118	=118	=118	=118
4E\]	4G/]	0.r	0.r
8D/L	4E/	.	.
8C/J	.	.	.
2BB/	2D/	.	.
4C/	2.G/	.	.
2GG/	.	.	.
4AA/	8F/L	.	.
.	8E/J	.	.
4BB/	1D	.	.
4C/	.	.	.
4D\	.	.	.
4BB/	.	.	.
=119	=119	=119	=119
!!linebreak:original
0C	0C	0.r	0.r
1r	1r	.	.
=120	=120	=120	=120
2.C/	1.G	2.E/	0.r
4D\	.	4F/	.
2.E\	.	2.G/	.
.	1.B	.	.
4F\	.	4A/	.
1D	.	1F	.
=121	=121	=121	=121
0C	1.c	1G	2.e/
.	.	.	4f/
.	.	1c	1g
.	1.e	.	.
2.A\	.	2r	1cc
.	.	2c\	.
4E\	.	.	.
=122	=122	=122	=122
2G\	1d	2d\	2b\
1F	.	2.f\	1a
.	2c\	.	.
.	.	4e\	.
2G\	2B\	2d\	2.g/
2A\	1A	2r	.
.	.	.	4e/
2F\	.	2A/	2f/
=123	=123	=123	=123
2G\	2G/	2B\	2e/
2E\	1c	2c\	2c/
1D	.	1d	1f
.	2B\	.	.
1C	2c\	2G/	1e
.	[2A/	[2c\	.
=124	=124	=124	=124
0.r	2A/]	2c\]	2c/
.	2G/	2B\	1d
.	2F/	2A/	.
.	2E/	1G	1c
.	1D	.	.
.	.	2F/	2B/
=125	=125	=125	=125
1C	1C	0G	2c/
.	.	.	1e
1E	2r	.	.
.	1c	.	2g/
1D	.	1r	1f
.	2B\	.	.
=126	=126	=126	=126
!!linebreak:original
2r	1c	1A	2e/
2A\	.	.	2f/
2G\	1d	2B\	1g
2B\	.	2G/	.
2A\	2r	2c\	2a/
2G\	[2G/	2d\	2b\
=127	=127	=127	=127
1A	2G/]	2e\	1cc
.	2F/	2f\	.
2r	2G/	2d\	2b\
2G\	2E/	2c\	2g/
1F	1D	1d	1a
=128	=128	=128	=128
1G	0d	1r	2r
.	.	.	1b-i
1D	.	1f	.
.	.	.	1a
1A	1c	1e	.
.	.	.	2e/
=129	=129	=129	=129
1B-	2r	1d	1g
.	2G/	.	.
0A	2D/	1r	2f/
.	2C/	.	1e
.	1F	2.c\	.
.	.	.	2d/
.	.	4A/	.
=130	=130	=130	=130
1G	1E	2B\	1e
.	.	2c\	.
2F\	2D/	2d\	2f/
2E\	[1.G	1e	2.g/
2C/	.	.	.
.	.	.	4a/
2BB/	.	[2d\	2b\
=131	=131	=131	=131
1AA	2G/]	4d\]	1cc
.	.	4B\	.
.	2F/	2c\	.
[0GG	1G	1d	2b\
.	.	.	1dd
.	2d\	2B\	.
.	[2e\	[2G/	2b\
=132	=132	=132	=132
0GG]	2e\]	4G/]	2.g/
.	.	4A/	.
.	2d\	2B\	.
.	.	.	4a/
.	2.B\	1G	2b\
.	.	.	2g/
.	4c\	.	.
1r	1A	1c	2r
.	.	.	2f/
=133	=133	=133	=133
!!pagebreak:original
1r	2.G/	1d	2.g/
.	4D/	.	4a/
1r	2E/	2g\	1cc
.	2.A/	2.f\	.
2r	.	.	2b\
.	4G/	4e\	.
2D\	2F/	[2d\	2a/
=134	=134	=134	=134
1E	1E	4d\]	2.g/
.	.	4B\	.
.	.	2c\	.
.	.	.	4e/
1F	1D	1d	4f/
.	.	.	4g/
.	.	.	2a/
2r	2.G/	1e	2b\
[2G\	.	.	[2g/
.	4A/	.	.
=135	=135	=135	=135
2G\]	2B\	2e\	2g/]
2F\	2c\	2f\	2a/
2E\	1.e	2g\	2b\
1A	.	1a	1cc
2B\	[2d\	[2g\	2dd\
=136	=136	=136	=136
2G\	2d\]	2g\]	2b\
2C/	2c\	2e\	2.a/
1G	1B	1d	.
.	.	.	4g/
.	.	.	1g
1D	1A	2r	.
.	.	2d\	2f#i/
=137	=137	=137	=137
0.GGl	0.Gl	2.B\	0.gl
.	.	4c\	.
.	.	1e	.
.	.	1dl	.
==	==	==	==
*-	*-	*-	*-
!!!RDF**kern: l=long note in original notation
!!!RDF**kern: i=editorial accidental
!!!ENC:	Will Watson 16/1/2012
!!!END:	2012/01/16/
!!!EED:	Jesse Rodin
!!!EEV:	2012/03/13/
!!!ONB:	Translated from MusicXML and edited on 2012/03/13/ by Craig Sapp
!!muse2ps: T^@{OPR}^u^@{ONM}{. }@{OTL}^C^@{COM}^i2I100v85,90,85,150Q16
